icons/outline/box-align-bottom-left.svg

<!--
tags: [cube, side, down, south-west]
category: Design
version: "1.82"
unicode: "f2ce"
-->
<svg
  xmlns="http://www.w3.org/2000/svg"
  width="24"
  height="24"
  viewBox="0 0 24 24"
  fill="none"
  stroke="currentColor"
  stroke-width="2"
  stroke-linecap="round"
  stroke-linejoin="round"
>
  <path d="M5 13h5a1 1 0 0 1 1 1v5a1 1 0 0 1 -1 1h-5a1 1 0 0 1 -1 -1v-5a1 1 0 0 1 1 -1zm-1 -4v.01m0 -5.01v.01m5 -.01v.01m6 -.01v.01m0 15.99v.01m5 -16.01v.01m0 4.99v.01m0 5.99v.01m0 4.99v.01" />
</svg>

<!--
tags: [cube, side, down, south-west]
category: Design
version: "1.82"
unicode: "f2ce"
-->
<svg
  xmlns="http://www.w3.org/2000/svg"
  width="24"
  height="24"
  viewBox="0 0 24 24"
  fill="none"
  stroke="currentColor"
  stroke-width="2"
  stroke-linecap="round"
  stroke-linejoin="round"
>
    <path d="M5 13h5a1 1 0 0 1 1 1v5a1 1 0 0 1 -1 1h-5a1 1 0 0 1 -1 -1v-5a1 1 0 0 1 1 -1zM4 9v.01M4 4v.01M9 4v.01M15 4v.01M15 20v.01M20 4v.01M20 9v.01M20 15v.01M20 20v.01" />
</svg>
